packages/ui-icons/svg/Solid/toggle-end.svg

<svg viewBox="0 0 1920 1920" version="1.1" xmlns="http://www.w3.org/2000/svg">
    <path d="M1016.47059,56 C1514.65412,56 1920,461.345882 1920,959.529412 C1920,1457.71294 1514.65412,1863.05882 1016.47059,1863.05882 C743.265882,1863.05882 488.131765,1741.64706 316.574118,1529.76941 L316.574118,1529.76941 L492.084706,1387.68941 C620.611765,1546.25882 811.821176,1637.17647 1016.47059,1637.17647 C1390.19294,1637.17647 1694.11765,1333.25176 1694.11765,959.529412 C1694.11765,585.807059 1390.19294,281.882353 1016.47059,281.882353 C811.821176,281.882353 620.611765,372.8 492.084706,531.369412 L492.084706,531.369412 L316.574118,389.289412 C488.131765,177.411765 743.265882,56 1016.47059,56 Z M926.930824,484.408471 L1401.96141,959.552 L926.930824,1434.69553 L767.232,1274.88376 L969.735529,1072.49318 L0.0225882353,1072.49318 L0.0225882353,846.610824 L969.735529,846.610824 L767.232,644.107294 L926.930824,484.408471 Z" stroke="none" stroke-width="1" fill-rule="evenodd"/>
</svg>

<svg viewBox="0 0 1920 1920" version="1.1" xmlns="http://www.w3.org/2000/svg">
    <path d="M767.232 644.107l159.699-159.699 475.03 475.144-475.03 475.144-159.699-159.812 202.504-202.39H.023V846.61h969.713L767.232 644.107zM1016.471 56C1514.654 56 1920 461.346 1920 959.53c0 498.183-405.346 903.529-903.53 903.529-273.204 0-528.338-121.412-699.896-333.29l175.51-142.08c128.528 158.57 319.737 249.487 524.387 249.487 373.722 0 677.647-303.924 677.647-677.647 0-373.722-303.925-677.647-677.647-677.647-204.65 0-395.86 90.918-524.386 249.487l-175.51-142.08C488.131 177.412 743.264 56 1016.47 56z" stroke="none" stroke-width="1" fill-rule="evenodd"/>
</svg>
